!!!COM: Louise Reichardt
!!!CNT: Deutsch
!!!TXO: Deutsch
!!!OTL: Liebe
!!!LYR: Tieck
!!!OPR: 
!!!OPS: No opus information available
!!!ONM: No. 27
!!!ENC: Ben Fuhrman
!!!YOR: Louise Reichardt: Songs
!!!YOR: New York, Da Capo Press, 1981
!!!ODT: 1800 - 1826
!!NB: Only vocal melody encoded.
!!NB: First instance of melodic material only encoded.
!!created: 2/19/10 12:25PM
!!proofed and posted: 2/19/10 12:25PM
**kern	**silbe
*clef G2	*
*k[f#c#]	*
*M3/8	*
*MM[Mit ho2chstem Ausdruck]	*
{8a	{Ge-
=1	=1
8a	lieb-
8a	-ter
8a	wo
=2	=2
8a	zau-
8a	-dert
8a	dein
=3	=3
16a	ir-
16dd	|
8dd	-ren-
8dd	-der
=4	=4
ddq	Fuss,
4cc#}	|}
{8cc#	{die
=5	=5
8dd	Nacht-
8b	-ti-
8g#	-gall
=6	=6
8ee	plau-
ddq	-dert
8cc#	|
bq	von
8a	|
=7	=7
8dd	Sehn-
8b	-sucht
8g#	und
=8	=8
4a}	Kuss}
{8a	{Es
=9	=9
8ee	flu2s-
8cc#	-tern
8a	die
=10	=10
8dd	Ba2u-
8a	-me
8a	im
=11	=11
8gg	gol-
ff#q	-de-
8e	|
ddq	-nen
8cc#	|
=12	=12
4dd}	Schein,}
{8dd	{es
=13	=13
16dd	schlu2p-
16b	|
8b	-fen
8b	mir
=14	=14
16b	Tra2u-
16g	|
8g	-me
8b	zum
=15	=15
16b	Fen-
16a	|
8a	-ster
8c#	hin-
=16	=16
4d}	-ein.}
8r	.
==	==
*-	*-
